X:1712
T:NELSON'S VICTORY
M:C|
L:1/8
B:O'NEILL'S 1712
Z:Transcribed by A. LEE WORMAN
K:G
D2GF GABc|d2fd gdBG|E2cB AGFA|GFGE DCB,A,|
G,2 GF GABc|dgfa gdBG|Ecec BAGF|G2G2G2z2:|
|:Bdgd cBcd|ecBc AGAB|cfaf dcBc|dFGE DCB,A,|
Bdgd cBcd|egfa gdBG|Ecec BAGF|G2G2G2z2:|
<START_ANN> %  ABC2Win Version 2.1 2/7/98 <END_ANN>
